;FLAVOR:RepRap
;TIME:4731
;Filament used: 6.19153m
;Layer height: 0.25
;MINX:63.157
;MINY:61.847
;MINZ:0.3
;MAXX:142.946
;MAXY:130.425
;MAXZ:70.05
;TARGET_MACHINE.NAME:Unknown
;Generated with Cura_SteamEngine 5.10.2
T0
M190 S50
M104 S210
M109 S210
G28 ;Home
G1 Z15.0 F6000 ;Move the platform down 15mm
;Prime the extruder
G92 E0
G1 F200 E3
G92 E0
M82 ;absolute extrusion mode
M83 ;relative extrusion mode
G1 F1500 E-6.5
;LAYER_COUNT:280
;LAYER:0
M107
G0 F3600 X81.325 Y69.85 Z0.3
;TYPE:SKIRT
G1 F1500 E6.5
G1 F1950 X85.965 Y64.953 E0.33657
G1 X88.001 Y63.719 E0.11878
G1 X94.182 Y61.995 E0.32014
G1 X96.574 Y61.847 E0.11957
G1 X103.017 Y63.648 E0.33376
G1 X105.13 Y64.768 E0.11931
G1 X109.839 Y69.739 E0.34161
G1 X110.861 Y71.472 E0.10037
G1 X112.597 Y77.455 E0.3108
G1 X112.749 Y79.93 E0.12371
G1 X111.669 Y83.672 E0.19431
G1 X111.448 Y84.17 E0.02718
G1 X114.711 Y87.341 E0.227
G1 X116.151 Y85.783 E0.10584
G1 X118.128 Y84.509 E0.11734
G1 X121.677 Y83.519 E0.18382
G1 X124.069 Y83.378 E0.11954
G1 X128.216 Y84.541 E0.21488
G1 X130.17 Y85.875 E0.11804
G1 X132.52 Y88.366 E0.17085
G1 X133.535 Y90.153 E0.10253
G1 X134.477 Y93.37 E0.16724
G1 X134.627 Y95.748 E0.11887
G1 X134.557 Y96.079 E0.01688
G1 X136.695 Y97.213 E0.12074
G1 X140.426 Y101.151 E0.27064
G1 X141.435 Y102.862 E0.0991
G1 X142.794 Y107.546 E0.24332
G1 X142.946 Y109.992 E0.12227
G1 X141.485 Y115.196 E0.26967
G1 X140.435 Y117.121 E0.1094
G1 X136.684 Y120.872 E0.26465
G1 X134.251 Y122.207 E0.13846
G1 X131.471 Y122.6 E0.14007
G1 X129.013 Y122.071 E0.12544
G1 X128.8 Y122.284 E0.01503
G1 X126.806 Y123.512 E0.11683
G1 X114.688 Y127.006 E0.6292
G1 X113.953 Y127.464 E0.04321
G1 X112.276 Y127.853 E0.08589
G1 X90.643 Y130.425 E1.08688
G1 X87.804 Y129.917 E0.14389
G1 X72.408 Y125.191 E0.80348
G1 X70.254 Y123.738 E0.12963
G1 X64.633 Y116.746 E0.44758
G1 X63.769 Y115.26 E0.08576
G1 X63.157 Y112.669 E0.13282
G1 X63.444 Y110.406 E0.11381
G1 X66.455 Y101.667 E0.46114
G1 X67.569 Y99.84 E0.10676
G1 X69.047 Y98.573 E0.09712
G1 X70.468 Y97.645 E0.08467
G1 X76.048 Y95.757 E0.29389
G1 X76.068 Y91.971 E0.18889
G1 X76.531 Y89.987 E0.10164
G1 X77.535 Y88.199 E0.1023
G1 X78.21 Y87.353 E0.054
G1 X78.344 Y87.231 E0.00904
G1 X78.007 Y86.535 E0.03858
G1 X77.75 Y84.405 E0.10704
G1 X77.957 Y82.76 E0.08272
G1 X78.349 Y81.222 E0.07918
G1 X78.72 Y80.619 E0.03532
G1 X78.658 Y80.335 E0.0145
G1 X78.516 Y77.97 E0.1182
G1 X80.366 Y71.621 E0.32993
G1 X81.325 Y69.85 E0.10048
G0 F3600 X81.652 Y70.086
G1 F1950 X86.218 Y65.267 E0.3312
G1 X88.161 Y64.09 E0.11334
G1 X94.249 Y62.391 E0.31534
G1 X96.531 Y62.25 E0.11407
G1 X102.87 Y64.022 E0.32838
G1 X104.885 Y65.09 E0.11378
G1 X109.518 Y69.982 E0.33614
G1 X110.491 Y71.631 E0.09552
G1 X112.201 Y77.524 E0.30613
G1 X112.346 Y79.886 E0.11806
G1 X111.303 Y83.51 E0.18814
G1 X110.969 Y84.263 E0.0411
G1 X114.76 Y87.946 E0.26369
G1 X114.978 Y87.642 E0.01866
G1 X116.412 Y86.091 E0.10538
G1 X118.294 Y84.878 E0.11171
G1 X121.744 Y83.915 E0.1787
G1 X124.025 Y83.781 E0.114
G1 X128.044 Y84.908 E0.20824
G1 X129.91 Y86.182 E0.11272
G1 X132.194 Y88.603 E0.16605
G1 X133.165 Y90.312 E0.09806
G1 X134.081 Y93.441 E0.16266
G1 X134.228 Y95.773 E0.11657
G1 X134.064 Y96.363 E0.03055
G1 X134.475 Y96.488 E0.02143
G1 X136.45 Y97.535 E0.11152
G1 X140.103 Y101.391 E0.265
G1 X141.066 Y103.024 E0.09458
G1 X142.398 Y107.615 E0.23849
G1 X142.543 Y109.949 E0.11667
G1 X141.113 Y115.043 E0.26396
G1 X140.112 Y116.878 E0.10428
G1 X136.441 Y120.549 E0.25901
G1 X134.122 Y121.821 E0.13196
G1 X131.485 Y122.194 E0.13287
G1 X128.872 Y121.632 E0.13334
G1 X128.59 Y121.943 E0.02094
G1 X126.64 Y123.144 E0.11426
G1 X114.522 Y126.638 E0.6292
G1 X113.798 Y127.089 E0.04256
G1 X112.186 Y127.463 E0.08256
G1 X90.656 Y130.021 E1.08169
G1 X87.874 Y129.523 E0.141
G1 X72.585 Y124.828 E0.79793
G1 X70.528 Y123.44 E0.1238
G1 X64.979 Y116.545 E0.44156
G1 X64.144 Y115.109 E0.08287
G1 X63.563 Y112.649 E0.12611
G1 X63.836 Y110.495 E0.10832
G1 X66.819 Y101.837 E0.45687
G1 X67.876 Y100.104 E0.10127
G1 X69.307 Y98.877 E0.09404
G1 X70.643 Y98.008 E0.07951
G1 X76.447 Y96.045 E0.30568
G1 X76.468 Y92.02 E0.20081
G1 X76.909 Y90.131 E0.09678
G1 X77.848 Y88.448 E0.09615
G1 X78.523 Y87.602 E0.054
G1 X78.841 Y87.34 E0.02056
G1 X78.396 Y86.421 E0.05094
G1 X78.153 Y84.407 E0.10121
G1 X78.345 Y82.859 E0.07782
G1 X78.722 Y81.38 E0.07615
G1 X79.149 Y80.687 E0.04061
G1 X79.057 Y80.311 E0.01931
G1 X78.919 Y78.016 E0.1147
G1 X80.738 Y71.774 E0.32437
G1 X81.652 Y70.086 E0.09577
G0 F3600 X81.979 Y70.322
G1 F1950 X86.471 Y65.581 E0.32584
G1 X88.321 Y64.461 E0.10789
G1 X94.316 Y62.787 E0.31053
G1 X96.488 Y62.653 E0.10857
G1 X102.723 Y64.396 E0.32299
G1 X104.64 Y65.412 E0.10824
G1 X109.197 Y70.225 E0.33068
G1 X110.12 Y71.789 E0.0906
G1 X111.805 Y77.594 E0.30157
G1 X111.943 Y79.843 E0.11241
G1 X110.937 Y83.348 E0.18193
G1 X110.49 Y84.356 E0.05501
G1 X114.816 Y88.558 E0.30088
G1 X115.272 Y87.914 E0.03937
G1 X116.673 Y86.399 E0.10295
G1 X118.461 Y85.246 E0.10614
G1 X121.81 Y84.312 E0.17346
G1 X123.981 Y84.184 E0.1085
G1 X127.872 Y85.275 E0.20161
G1 X129.65 Y86.489 E0.10741
G1 X131.868 Y88.84 E0.16125
G1 X132.795 Y90.471 E0.0936
G1 X133.685 Y93.512 E0.15808
G1 X133.825 Y95.731 E0.11093
G1 X133.572 Y96.641 E0.04712
G1 X134.288 Y96.841 E0.03709
G1 X136.205 Y97.857 E0.10824
G1 X139.78 Y101.631 E0.25935
G1 X140.697 Y103.186 E0.09006
G1 X142.002 Y107.684 E0.23366
G1 X142.14 Y109.906 E0.11107
G1 X140.741 Y114.89 E0.25826
G1 X139.789 Y116.635 E0.09917
G1 X136.198 Y120.226 E0.25336
G1 X133.993 Y121.435 E0.12546
G1 X131.499 Y121.788 E0.12567
G1 X129.081 Y121.268 E0.12339
G1 X128.782 Y121.115 E0.01676
G1 X128.38 Y121.602 E0.0315
G1 X126.474 Y122.776 E0.11168
G1 X114.356 Y126.27 E0.6292
G1 X113.643 Y126.714 E0.0419
G1 X112.096 Y127.073 E0.07923
G1 X90.67 Y129.617 E1.07646
G1 X87.945 Y129.129 E0.13811
G1 X72.762 Y124.465 E0.79242
G1 X70.802 Y123.142 E0.11798
G1 X65.291 Y116.294 E0.43854
G1 X64.519 Y114.96 E0.07689
G1 X63.969 Y112.629 E0.11949
G1 X64.228 Y110.584 E0.10284
G1 X67.182 Y102.011 E0.45239
G1 X68.185 Y100.366 E0.09612
G1 X69.525 Y99.212 E0.08823
G1 X70.818 Y98.371 E0.07695
G1 X76.846 Y96.332 E0.31748
G1 X76.868 Y92.069 E0.21268
G1 X77.286 Y90.276 E0.09185
G1 X78.161 Y88.697 E0.09006
G1 X78.836 Y87.851 E0.054
G1 X79.342 Y87.456 E0.03203
G1 X78.785 Y86.307 E0.0637
G1 X78.556 Y84.408 E0.09543
G1 X78.733 Y82.958 E0.07288
G1 X79.095 Y81.538 E0.07311
G1 X79.58 Y80.751 E0.04612
G1 X79.456 Y80.287 E0.02396
G1 X79.322 Y78.062 E0.11121
G1 X81.11 Y71.927 E0.31881
G1 X81.979 Y70.322 E0.09106
G0 F3600 X82.306 Y70.558
G1 F1950 X86.724 Y65.895 E0.32047
G1 X88.481 Y64.832 E0.10245
G1 X94.383 Y63.183 E0.30573
G1 X96.445 Y63.056 E0.10307
G1 X102.576 Y64.77 E0.3176
G1 X104.394 Y65.734 E0.10266
G1 X108.876 Y70.468 E0.32524
G1 X109.749 Y71.947 E0.08568
G1 X111.409 Y77.664 E0.297
G1 X111.54 Y79.797 E0.10662
G1 X110.571 Y83.186 E0.17585
G1 X110.011 Y84.449 E0.06893
G1 X114.873 Y89.171 E0.33814
G1 X115.599 Y88.145 E0.06271
G1 X116.932 Y86.708 E0.09779
G1 X118.627 Y85.615 E0.10062
G1 X121.877 Y84.708 E0.16834
G1 X123.937 Y84.587 E0.10295
G1 X127.7 Y85.642 E0.19498
G1 X129.39 Y86.796 E0.1021
G1 X131.542 Y89.077 E0.15645
G1 X132.425 Y90.63 E0.08913
G1 X133.289 Y93.583 E0.1535
G1 X133.422 Y95.689 E0.10528
G1 X133.079 Y96.918 E0.06366
G1 X134.141 Y97.215 E0.05502
G1 X135.96 Y98.179 E0.10271
G1 X139.457 Y101.871 E0.2537
G1 X140.328 Y103.348 E0.08555
G1 X141.606 Y107.753 E0.22883
G1 X141.737 Y109.863 E0.10547
G1 X140.369 Y114.737 E0.25256
G1 X139.466 Y116.392 E0.09406
G1 X135.955 Y119.903 E0.24772
G1 X133.864 Y121.049 E0.11896
G1 X131.513 Y121.382 E0.11846
G1 X129.165 Y120.877 E0.11982
G1 X128.692 Y120.596 E0.02745
G1 X128.115 Y121.295 E0.04522
G1 X126.308 Y122.408 E0.10588
G1 X114.191 Y125.902 E0.62915
G1 X113.486 Y126.34 E0.04141
G1 X112.049 Y126.676 E0.07363
G1 X90.684 Y129.213 E1.07339
G1 X88.016 Y128.735 E0.13523
G1 X72.939 Y124.102 E0.78691
G1 X71.076 Y122.844 E0.11215
G1 X65.603 Y116.043 E0.43553
G1 X64.894 Y114.81 E0.07096
G1 X64.375 Y112.609 E0.11282
G1 X64.62 Y110.673 E0.09736
G1 X67.546 Y102.181 E0.44811
G1 X68.493 Y100.629 E0.09071
G1 X69.743 Y99.547 E0.08248
G1 X70.993 Y98.734 E0.07439
G1 X77.245 Y96.619 E0.32928
G1 X77.268 Y92.118 E0.22456
G1 X77.664 Y90.418 E0.08708
G1 X78.474 Y88.947 E0.08378
G1 X79.122 Y88.135 E0.05183
G1 X79.842 Y87.572 E0.0456
G1 X79.174 Y86.193 E0.07645
G1 X78.959 Y84.408 E0.0897
G1 X79.121 Y83.057 E0.06788
G1 X79.468 Y81.696 E0.07007
G1 X80.013 Y80.811 E0.05185
G1 X79.855 Y80.263 E0.02845
G1 X79.725 Y78.108 E0.10771
G1 X81.482 Y72.08 E0.31325
G1 X82.306 Y70.558 E0.08635
G0 F3600 X82.633 Y70.794
G1 F1950 X86.977 Y66.209 E0.31511
G1 X88.641 Y65.202 E0.09704
G1 X94.45 Y63.579 E0.30091
G1 X96.402 Y63.459 E0.09757
G1 X102.429 Y65.144 E0.31222
G1 X104.148 Y66.056 E0.09708
G1 X108.553 Y70.708 E0.31963
G1 X109.379 Y72.108 E0.0811
G1 X111.013 Y77.734 E0.29228
G1 X111.137 Y79.751 E0.10082
G1 X110.205 Y83.024 E0.16978
G1 X109.59 Y84.411 E0.0757
G1 X109.5 Y84.546 E0.00809
G1 X109.687 Y84.693 E0.01187
G1 X114.964 Y89.818 E0.367
G1 X115.05 Y89.614 E0.01105
G1 X115.926 Y88.376 E0.07566
G1 X117.19 Y87.017 E0.09259
G1 X118.794 Y85.983 E0.09521
G1 X121.943 Y85.105 E0.1631
G1 X123.893 Y84.99 E0.09745
G1 X127.528 Y86.009 E0.18834
G1 X129.13 Y87.103 E0.09678
G1 X131.216 Y89.314 E0.15165
G1 X132.055 Y90.789 E0.08466
G1 X132.893 Y93.654 E0.14892
G1 X133.019 Y95.646 E0.09958
G1 X132.586 Y97.196 E0.08029
G1 X133.994 Y97.589 E0.07293
G1 X135.715 Y98.501 E0.09717
G1 X139.134 Y102.111 E0.24806
G1 X139.959 Y103.51 E0.08103
G1 X141.21 Y107.822 E0.224
G1 X141.334 Y109.82 E0.09987
G1 X139.997 Y114.584 E0.24686
G1 X139.143 Y116.149 E0.08895
G1 X135.712 Y119.58 E0.24208
G1 X133.735 Y120.663 E0.11246
G1 X131.527 Y120.976 E0.11126
G1 X129.249 Y120.486 E0.11625
G1 X128.613 Y120.062 E0.03813
G1 X127.848 Y120.989 E0.05996
G1 X126.142 Y122.04 E0.09997
G1 X114.026 Y125.534 E0.6291
G1 X113.332 Y125.965 E0.04076
G1 X111.958 Y126.286 E0.0704
G1 X90.698 Y128.809 E1.06811
G1 X88.087 Y128.341 E0.13234
G1 X73.113 Y123.737 E0.78157
G1 X71.35 Y122.546 E0.10615
G1 X65.95 Y115.844 E0.42939
G1 X65.269 Y114.66 E0.06814
G1 X64.781 Y112.589 E0.10615
G1 X65.012 Y110.762 E0.09188
G1 X67.909 Y102.355 E0.44363
G1 X68.803 Y100.889 E0.08567
G1 X69.961 Y99.882 E0.07656
G1 X71.168 Y99.097 E0.07183
G1 X77.643 Y96.907 E0.34102
G1 X77.668 Y92.167 E0.23648
G1 X78.042 Y90.561 E0.08227
G1 X78.787 Y89.197 E0.07754
G1 X79.407 Y88.421 E0.04955
G1 X80.343 Y87.688 E0.05931
G1 X79.563 Y86.079 E0.08921
G1 X79.362 Y84.407 E0.08402
G1 X79.509 Y83.156 E0.06284
G1 X79.841 Y81.854 E0.06704
G1 X80.446 Y80.871 E0.05759
G1 X80.251 Y80.195 E0.0351
G1 X80.128 Y78.154 E0.10201
G1 X81.854 Y72.233 E0.30769
G1 X82.633 Y70.794 E0.08164
G0 F3600 X82.96 Y71.03
G1 F1950 X87.23 Y66.523 E0.30975
G1 X88.801 Y65.573 E0.09159
G1 X94.517 Y63.975 E0.29611
G1 X96.359 Y63.862 E0.09207
G1 X102.281 Y65.518 E0.30678
G1 X103.902 Y66.378 E0.09155
G1 X108.232 Y70.951 E0.31419
G1 X109.008 Y72.266 E0.07618
G1 X110.617 Y77.804 E0.28772
G1 X110.734 Y79.705 E0.09502
G1 X109.82 Y82.914 E0.16646
G1 X109.225 Y84.248 E0.07287
G1 X108.937 Y84.616 E0.02331
G1 X109.408 Y84.98 E0.0297
G1 X115.137 Y90.544 E0.39843
G1 X115.377 Y89.844 E0.03692
G1 X116.219 Y88.648 E0.07297
G1 X117.448 Y87.326 E0.09005
G1 X118.96 Y86.352 E0.08973
G1 X122.01 Y85.501 E0.15798
G1 X123.849 Y85.393 E0.09191
G1 X127.356 Y86.376 E0.18171
G1 X128.867 Y87.408 E0.09129
G1 X130.892 Y89.554 E0.14721
G1 X131.685 Y90.948 E0.08001
G1 X132.497 Y93.725 E0.14435
G1 X132.616 Y95.603 E0.09388
G1 X132.093 Y97.473 E0.09687
G1 X133.847 Y97.963 E0.09086
G1 X135.47 Y98.823 E0.09164
G1 X138.813 Y102.354 E0.24259
G1 X139.589 Y103.669 E0.07618
G1 X140.814 Y107.891 E0.21932
G1 X140.931 Y109.777 E0.09427
G1 X139.625 Y114.431 E0.24116
G1 X138.82 Y115.906 E0.08383
G1 X135.469 Y119.257 E0.23643
G1 X133.606 Y120.277 E0.10596
G1 X131.541 Y120.57 E0.10406
G1 X129.408 Y120.111 E0.10885
G1 X128.534 Y119.528 E0.05241
G1 X127.581 Y120.683 E0.07471
G1 X125.976 Y121.672 E0.09406
G1 X113.86 Y125.166 E0.6291
G1 X113.178 Y125.59 E0.04006
G1 X111.867 Y125.896 E0.06716
G1 X90.712 Y128.405 E1.06282
G1 X88.158 Y127.947 E0.12945
G1 X73.287 Y123.372 E0.77623
G1 X71.623 Y122.248 E0.10018
G1 X66.297 Y115.645 E0.42323
G1 X65.644 Y114.51 E0.06533
G1 X65.187 Y112.569 E0.09948
G1 X65.404 Y110.851 E0.08639
G1 X68.273 Y102.525 E0.43936
G1 X69.111 Y101.151 E0.08029
G1 X70.179 Y100.217 E0.07078
G1 X71.343 Y99.46 E0.06927
G1 X78.042 Y97.194 E0.35282
G1 X78.068 Y92.216 E0.24836
G1 X78.42 Y90.703 E0.0775
G1 X79.1 Y89.447 E0.07126
G1 X79.693 Y88.704 E0.04743
G1 X80.723 Y87.899 E0.06522
G1 X80.921 Y87.791 E0.01125
G1 X80.702 Y87.512 E0.0177
G1 X79.952 Y85.965 E0.08577
G1 X79.765 Y84.405 E0.07839
G1 X79.897 Y83.255 E0.05775
G1 X80.214 Y82.012 E0.064
G1 X80.88 Y80.931 E0.06335
G1 X80.647 Y80.127 E0.04176
G1 X80.531 Y78.2 E0.09631
G1 X82.226 Y72.386 E0.30214
G1 X82.96 Y71.03 E0.07693
G0 F3600 X83.287 Y71.266
G1 F1950 X87.483 Y66.837 E0.30438
G1 X88.961 Y65.944 E0.08615
G1 X94.584 Y64.371 E0.2913
G1 X96.316 Y64.265 E0.08657
G1 X102.133 Y65.892 E0.30135
G1 X103.656 Y66.7 E0.08601
G1 X107.911 Y71.194 E0.30876
G1 X108.637 Y72.424 E0.07126
G1 X110.221 Y77.874 E0.28315
G1 X110.331 Y79.659 E0.08922
G1 X109.435 Y82.804 E0.16315
G1 X108.86 Y84.084 E0.07001
G1 X108.362 Y84.681 E0.03879
G1 X109.129 Y85.267 E0.04816
G1 X115.311 Y91.271 E0.42994
G1 X115.736 Y90.029 E0.06549
G1 X116.512 Y88.92 E0.06753
G1 X117.706 Y87.635 E0.08751
G1 X119.127 Y86.72 E0.08432
G1 X122.076 Y85.898 E0.15273
G1 X123.805 Y85.796 E0.08641
G1 X127.184 Y86.743 E0.17507
G1 X128.604 Y87.713 E0.0858
G1 X130.568 Y89.794 E0.14276
G1 X131.315 Y91.107 E0.07537
G1 X132.101 Y93.796 E0.13977
G1 X132.213 Y95.56 E0.08818
G1 X131.6 Y97.75 E0.11346
G1 X133.7 Y98.337 E0.10879
G1 X135.224 Y99.145 E0.08606
G1 X138.492 Y102.597 E0.23715
G1 X139.218 Y103.827 E0.07126
G1 X140.418 Y107.961 E0.21476
G1 X140.528 Y109.734 E0.08863
G1 X139.253 Y114.278 E0.23546
G1 X138.497 Y115.663 E0.07872
G1 X135.226 Y118.934 E0.23079
G1 X133.477 Y119.891 E0.09947
G1 X131.555 Y120.164 E0.09685
G1 X129.567 Y119.736 E0.10145
G1 X128.403 Y118.96 E0.06979
G1 X128.229 Y119.27 E0.01774
G1 X127.316 Y120.376 E0.07155
G1 X125.81 Y121.304 E0.08825
G1 X113.694 Y124.798 E0.6291
G1 X113.022 Y125.216 E0.03948
G1 X111.82 Y125.499 E0.06161
G1 X90.726 Y128.001 E1.05976
G1 X88.229 Y127.553 E0.12656
G1 X73.461 Y123.007 E0.7709
G1 X71.896 Y121.95 E0.09422
G1 X66.644 Y115.445 E0.41711
G1 X66.019 Y114.359 E0.06251
G1 X65.593 Y112.549 E0.09277
G1 X65.796 Y110.94 E0.08091
G1 X68.637 Y102.695 E0.43508
G1 X69.42 Y101.412 E0.07499
G1 X70.397 Y100.552 E0.06494
G1 X71.518 Y99.823 E0.06671
G1 X78.44 Y97.481 E0.36457
G1 X78.468 Y92.264 E0.26028
G1 X78.797 Y90.847 E0.07257
G1 X79.452 Y89.638 E0.0686
G1 X79.978 Y88.988 E0.04172
G1 X80.969 Y88.214 E0.06273
G1 X81.554 Y87.92 E0.03266
G1 X81.062 Y87.337 E0.03806
G1 X80.341 Y85.85 E0.08245
G1 X80.168 Y84.406 E0.07256
G1 X80.285 Y83.354 E0.05281
G1 X80.587 Y82.17 E0.06096
G1 X81.314 Y80.99 E0.06915
G1 X81.043 Y80.057 E0.04847
G1 X80.934 Y78.246 E0.09051
G1 X82.598 Y72.539 E0.29658
G1 X83.287 Y71.266 E0.07222
G0 F3600 X83.614 Y71.502
G1 F1950 X87.736 Y67.151 E0.29902
G1 X89.121 Y66.314 E0.08074
G1 X94.651 Y64.767 E0.28648
G1 X96.273 Y64.668 E0.08107
G1 X101.985 Y66.266 E0.29591
G1 X103.41 Y67.022 E0.08048
G1 X107.588 Y71.434 E0.30315
G1 X108.267 Y72.585 E0.06667
G1 X109.825 Y77.944 E0.27843
G1 X109.928 Y79.613 E0.08343
G1 X109.05 Y82.694 E0.15983
G1 X108.518 Y83.87 E0.0644
G1 X107.786 Y84.747 E0.05699
G1 X108.85 Y85.554 E0.06662
G1 X115.602 Y92.112 E0.4696
G1 X115.689 Y91.399 E0.03584
G1 X116.096 Y90.213 E0.06256
G1 X116.84 Y89.149 E0.06477
G1 X117.965 Y87.943 E0.08228
G1 X119.292 Y87.089 E0.07873
G1 X122.142 Y86.294 E0.14762
G1 X123.761 Y86.199 E0.08091
G1 X127.012 Y87.11 E0.16844
G1 X128.341 Y88.018 E0.0803
G1 X130.244 Y90.034 E0.13831
G1 X130.945 Y91.266 E0.07072
G1 X131.705 Y93.867 E0.13519
G1 X131.81 Y95.517 E0.08249
G1 X131.107 Y98.027 E0.13004
G1 X133.553 Y98.711 E0.12671
G1 X134.978 Y99.467 E0.08048
G1 X138.169 Y102.837 E0.23154
G1 X138.848 Y103.988 E0.06667
G1 X140.022 Y108.031 E0.21004
