;FLAVOR:RepRap
;TIME:6592
;Filament used: 9.87151m
;Layer height: 0.3
;MINX:0
;MINY:0
;MINZ:0.3
;MAXX:135.8
;MAXY:182.801
;MAXZ:23.1
;TARGET_MACHINE.NAME:Unknown
;Generated with Cura_SteamEngine 5.10.2
T0
M190 S50
M104 S210
M109 S210
G28 ;Home
G1 Z15.0 F6000 ;Move the platform down 15mm
;Prime the extruder
G92 E0
G1 F200 E3
G92 E0
M82 ;absolute extrusion mode
M83 ;relative extrusion mode
G1 F1500 E-6.5
;LAYER_COUNT:77
;LAYER:0
M107
G0 F3600 X64.831 Y22.32 Z0.3
;TYPE:SKIRT
G1 F1500 E6.5
G1 X65.826 Y20.549 E0.10135
G1 X66.599 Y19.551 E0.06298
G1 X67.952 Y18.459 E0.08674
G1 X69.931 Y17.473 E0.11031
G1 X71.455 Y17.251 E0.07684
G1 X104.622 Y17.199 E1.65471
G1 X106.679 Y17.621 E0.10476
G1 X108.45 Y18.616 E0.10135
G1 X109.448 Y19.389 E0.06298
G1 X110.54 Y20.742 E0.08674
G1 X111.526 Y22.721 E0.11031
G1 X111.748 Y24.245 E0.07684
G1 X111.794 Y88.462 E3.2038
G1 X111.952 Y88.453 E0.0079
G1 X114.071 Y88.706 E0.10647
G1 X116.033 Y89.513 E0.10584
G1 X117.504 Y90.739 E0.09554
G1 X119.151 Y92.482 E0.11964
G1 X120.224 Y94.249 E0.10314
G1 X121.285 Y97.907 E0.19002
G1 X121.437 Y100.357 E0.12247
G1 X120.286 Y104.457 E0.21246
G1 X119.234 Y106.386 E0.10962
G1 X117.054 Y108.566 E0.15381
G1 X115.293 Y109.691 E0.10425
G1 X113.68 Y110.182 E0.08412
G1 X112.227 Y110.425 E0.0735
G1 X111.794 Y110.386 E0.02169
G1 X111.795 Y113.224 E0.14159
G1 X112.739 Y112.464 E0.06046
G1 X114.721 Y111.475 E0.11051
G1 X116.302 Y111.249 E0.07968
G1 X128.618 Y111.201 E0.61445
G1 X130.678 Y111.624 E0.10492
G1 X132.45 Y112.618 E0.10136
G1 X133.448 Y113.391 E0.06298
G1 X134.54 Y114.744 E0.08674
G1 X135.526 Y116.725 E0.1104
G1 X135.768 Y118.527 E0.09071
G1 X135.8 Y126.612 E0.40337
G1 X135.377 Y128.681 E0.10536
G1 X134.383 Y130.451 E0.10128
G1 X133.61 Y131.449 E0.06298
G1 X132.257 Y132.541 E0.08674
G1 X130.277 Y133.527 E0.11035
G1 X128.698 Y133.753 E0.07958
G1 X116.288 Y133.801 E0.61914
G1 X114.282 Y133.362 E0.10245
G1 X112.496 Y132.362 E0.10212
G1 X111.796 Y131.814 E0.04435
G1 X111.8 Y175.623 E2.18564
G1 X111.378 Y177.68 E0.10476
G1 X110.383 Y179.451 E0.10135
G1 X109.61 Y180.449 E0.06298
G1 X108.257 Y181.541 E0.08674
G1 X106.278 Y182.527 E0.11031
G1 X104.754 Y182.749 E0.07684
G1 X71.492 Y182.801 E1.65945
G1 X69.491 Y182.362 E0.1022
G1 X67.705 Y181.362 E0.10212
G1 X66.762 Y180.623 E0.05977
G1 X65.681 Y179.277 E0.08613
G1 X64.683 Y177.261 E0.11223
G1 X64.461 Y175.755 E0.07595
G1 X64.409 Y24.377 E7.55228
G1 X64.831 Y22.32 E0.10476
G0 F3600 X65.211 Y22.461
G1 F1500 X66.142 Y20.794 E0.09526
G1 X66.887 Y19.832 E0.0607
G1 X68.169 Y18.798 E0.08217
G1 X70.051 Y17.86 E0.10491
G1 X71.513 Y17.647 E0.07371
G1 X104.581 Y17.599 E1.64977
G1 X106.538 Y18.001 E0.09967
G1 X108.205 Y18.932 E0.09526
G1 X109.167 Y19.677 E0.0607
G1 X110.201 Y20.959 E0.08217
G1 X111.139 Y22.841 E0.10491
G1 X111.352 Y24.303 E0.07371
G1 X111.394 Y88.921 E3.22381
G1 X111.904 Y88.85 E0.02569
G1 X113.969 Y89.097 E0.10376
G1 X115.823 Y89.859 E0.1
G1 X117.213 Y91.014 E0.09016
G1 X118.831 Y92.726 E0.11752
G1 X119.855 Y94.413 E0.09846
G1 X120.889 Y97.976 E0.18509
G1 X121.034 Y100.314 E0.11687
G1 X119.914 Y104.304 E0.20676
G1 X118.911 Y106.143 E0.10451
G1 X116.8 Y108.254 E0.14894
G1 X115.123 Y109.325 E0.09927
G1 X113.614 Y109.787 E0.07873
G1 X112.161 Y110.03 E0.0735
G1 X111.394 Y109.929 E0.0386
G1 X111.395 Y114.197 E0.21293
G1 X111.715 Y113.802 E0.02536
G1 X112.957 Y112.802 E0.07955
G1 X114.842 Y111.862 E0.10509
G1 X116.304 Y111.649 E0.07371
G1 X128.577 Y111.601 E0.61231
G1 X130.538 Y112.004 E0.09988
G1 X132.205 Y112.934 E0.09523
G1 X133.167 Y113.679 E0.0607
G1 X134.201 Y114.961 E0.08217
G1 X135.139 Y116.844 E0.10495
G1 X135.368 Y118.529 E0.08484
G1 X135.4 Y126.572 E0.40127
G1 X134.997 Y128.541 E0.10027
G1 X134.067 Y130.206 E0.09515
G1 X133.322 Y131.168 E0.0607
G1 X132.04 Y132.202 E0.08217
G1 X130.158 Y133.14 E0.10491
G1 X128.696 Y133.353 E0.07371
G1 X116.332 Y133.401 E0.61685
G1 X114.424 Y132.983 E0.09745
G1 X112.743 Y132.047 E0.09599
G1 X111.837 Y131.337 E0.05743
G1 X111.396 Y130.788 E0.03513
G1 X111.4 Y175.582 E2.23478
G1 X110.998 Y177.539 E0.09967
G1 X110.067 Y179.206 E0.09526
G1 X109.322 Y180.168 E0.0607
G1 X108.04 Y181.202 E0.08217
G1 X106.158 Y182.14 E0.10491
G1 X104.696 Y182.353 E0.07371
G1 X71.537 Y182.401 E1.65431
G1 X69.633 Y181.983 E0.09725
G1 X67.952 Y181.047 E0.09599
G1 X67.046 Y180.337 E0.05743
G1 X66.017 Y179.056 E0.08197
G1 X65.07 Y177.143 E0.10649
G1 X64.857 Y175.697 E0.07292
G1 X64.809 Y24.418 E7.54734
G1 X65.211 Y22.461 E0.09967
G0 F3600 X65.591 Y22.602
G1 F1500 X66.458 Y21.039 E0.08917
G1 X67.175 Y20.113 E0.05843
G1 X68.386 Y19.137 E0.0776
G1 X70.171 Y18.247 E0.09951
G1 X71.571 Y18.043 E0.07058
G1 X104.539 Y17.999 E1.64478
G1 X106.397 Y18.381 E0.09463
G1 X107.96 Y19.248 E0.08917
G1 X108.886 Y19.965 E0.05843
G1 X109.862 Y21.176 E0.0776
G1 X110.752 Y22.961 E0.09951
G1 X110.956 Y24.361 E0.07058
G1 X110.994 Y89.395 E3.24456
G1 X111.856 Y89.247 E0.04363
G1 X113.867 Y89.488 E0.10105
G1 X115.615 Y90.206 E0.09428
G1 X116.922 Y91.289 E0.08468
G1 X118.513 Y92.972 E0.11554
G1 X119.485 Y94.574 E0.09349
G1 X120.493 Y98.046 E0.18037
G1 X120.631 Y100.271 E0.11122
G1 X119.542 Y104.151 E0.20105
G1 X118.588 Y105.9 E0.09939
G1 X116.546 Y107.942 E0.14407
G1 X114.954 Y108.959 E0.09425
G1 X113.548 Y109.392 E0.0734
G1 X112.154 Y109.625 E0.07051
G1 X110.994 Y109.472 E0.05837
G1 X110.995 Y115.499 E0.30069
G1 X111.284 Y114.989 E0.02925
G1 X111.966 Y114.114 E0.05535
G1 X113.177 Y113.139 E0.07757
G1 X114.962 Y112.249 E0.09951
G1 X116.362 Y112.045 E0.07058
G1 X128.537 Y112.001 E0.60742
G1 X130.397 Y112.383 E0.09473
G1 X131.96 Y113.25 E0.08917
G1 X132.886 Y113.967 E0.05843
G1 X133.862 Y115.178 E0.0776
G1 X134.752 Y116.963 E0.09951
G1 X134.968 Y118.531 E0.07897
G1 X135 Y126.532 E0.39917
G1 X134.618 Y128.4 E0.09512
G1 X133.751 Y129.961 E0.08908
G1 X133.034 Y130.887 E0.05843
G1 X131.823 Y131.863 E0.0776
G1 X130.038 Y132.753 E0.09951
G1 X128.638 Y132.957 E0.07058
G1 X116.376 Y133.001 E0.61176
G1 X114.567 Y132.604 E0.0924
G1 X112.99 Y131.732 E0.0899
G1 X112.121 Y131.051 E0.05508
G1 X111.171 Y129.869 E0.07566
G1 X110.996 Y129.537 E0.01872
G1 X111 Y175.54 E2.2951
G1 X110.618 Y177.398 E0.09463
G1 X109.751 Y178.961 E0.08917
G1 X109.034 Y179.887 E0.05843
G1 X107.823 Y180.863 E0.0776
G1 X106.038 Y181.753 E0.09951
G1 X104.638 Y181.957 E0.07058
G1 X71.582 Y182.001 E1.64917
G1 X69.776 Y181.604 E0.09225
G1 X68.199 Y180.732 E0.0899
G1 X67.33 Y180.051 E0.05508
G1 X66.353 Y178.835 E0.07782
G1 X65.457 Y177.025 E0.10076
G1 X65.253 Y175.639 E0.06989
G1 X65.209 Y24.46 E7.54235
G1 X65.591 Y22.602 E0.09463
G0 F3600 X65.971 Y22.742
G1 F1500 X66.808 Y21.233 E0.08609
G1 X67.46 Y20.397 E0.05289
G1 X68.606 Y19.474 E0.07341
G1 X70.291 Y18.634 E0.09393
G1 X71.629 Y18.439 E0.06746
G1 X104.497 Y18.399 E1.63979
G1 X106.257 Y18.761 E0.08964
G1 X107.766 Y19.598 E0.08609
G1 X108.602 Y20.25 E0.05289
G1 X109.525 Y21.396 E0.07341
G1 X110.365 Y23.081 E0.09393
G1 X110.56 Y24.419 E0.06746
G1 X110.594 Y89.869 E3.26531
G1 X111.866 Y89.651 E0.06439
G1 X113.765 Y89.878 E0.09542
G1 X115.407 Y90.553 E0.08857
G1 X116.631 Y91.564 E0.0792
G1 X118.193 Y93.216 E0.11343
G1 X119.116 Y94.737 E0.08876
G1 X120.097 Y98.116 E0.17554
G1 X120.228 Y100.228 E0.10557
G1 X119.169 Y104 E0.19546
G1 X118.266 Y105.656 E0.0941
G1 X116.292 Y107.63 E0.13928
G1 X114.785 Y108.593 E0.08922
G1 X113.482 Y108.997 E0.06806
G1 X112.147 Y109.22 E0.06753
G1 X110.594 Y109.015 E0.07815
G1 X110.595 Y117.56 E0.42631
G1 X110.762 Y116.743 E0.0416
G1 X111.599 Y115.235 E0.08605
G1 X112.251 Y114.399 E0.05289
G1 X113.397 Y113.476 E0.07341
G1 X115.082 Y112.636 E0.09393
G1 X116.42 Y112.441 E0.06746
G1 X128.496 Y112.401 E0.60248
G1 X130.257 Y112.763 E0.08969
G1 X131.766 Y113.6 E0.08609
G1 X132.602 Y114.252 E0.05289
G1 X133.525 Y115.398 E0.07341
G1 X134.365 Y117.083 E0.09393
G1 X134.568 Y118.533 E0.07305
G1 X134.6 Y126.492 E0.39708
G1 X134.238 Y128.259 E0.08999
G1 X133.401 Y129.767 E0.08605
G1 X132.749 Y130.603 E0.05289
G1 X131.603 Y131.526 E0.07341
G1 X129.918 Y132.366 E0.09393
G1 X128.58 Y132.561 E0.06746
G1 X116.42 Y132.601 E0.60667
G1 X114.709 Y132.225 E0.0874
G1 X113.237 Y131.417 E0.08377
G1 X112.405 Y130.765 E0.05274
G1 X111.483 Y129.618 E0.07342
G1 X110.664 Y127.963 E0.09213
G1 X110.596 Y127.638 E0.01657
G1 X110.6 Y175.498 E2.38775
G1 X110.238 Y177.258 E0.08964
G1 X109.401 Y178.767 E0.08609
G1 X108.749 Y179.603 E0.05289
G1 X107.603 Y180.526 E0.07341
G1 X105.918 Y181.366 E0.09393
G1 X104.58 Y181.561 E0.06746
G1 X71.627 Y181.601 E1.64403
G1 X69.918 Y181.225 E0.0873
G1 X68.446 Y180.417 E0.08377
G1 X67.614 Y179.765 E0.05274
G1 X66.692 Y178.618 E0.07342
G1 X65.844 Y176.904 E0.09541
G1 X65.649 Y175.581 E0.06672
G1 X65.609 Y24.502 E7.53736
G1 X65.971 Y22.742 E0.08964
G0 F3600 X66.351 Y22.882
G1 F1500 X67.158 Y21.427 E0.08301
G1 X67.744 Y20.682 E0.04729
G1 X68.826 Y19.811 E0.0693
G1 X70.411 Y19.021 E0.08835
G1 X71.687 Y18.835 E0.06433
G1 X104.455 Y18.799 E1.6348
G1 X106.117 Y19.141 E0.08465
G1 X107.572 Y19.948 E0.08301
G1 X108.317 Y20.534 E0.04729
G1 X109.188 Y21.616 E0.0693
G1 X109.978 Y23.201 E0.08835
G1 X110.164 Y24.477 E0.06433
G1 X110.194 Y90.343 E3.28607
G1 X111.876 Y90.055 E0.08514
G1 X113.663 Y90.269 E0.08979
G1 X115.199 Y90.9 E0.08285
G1 X116.34 Y91.839 E0.07372
G1 X117.873 Y93.46 E0.11131
G1 X118.747 Y94.9 E0.08404
G1 X119.701 Y98.186 E0.17071
G1 X119.825 Y100.185 E0.09992
G1 X118.797 Y103.847 E0.18976
G1 X117.943 Y105.413 E0.08899
G1 X116.038 Y107.318 E0.13441
G1 X114.617 Y108.226 E0.08413
G1 X113.416 Y108.602 E0.06279
G1 X112.14 Y108.815 E0.06454
G1 X110.358 Y108.58 E0.08967
G1 X110.194 Y108.524 E0.00865
G1 X110.2 Y175.456 E3.33925
G1 X109.858 Y177.118 E0.08465
G1 X109.051 Y178.573 E0.08301
G1 X108.465 Y179.318 E0.04729
G1 X107.383 Y180.189 E0.0693
G1 X105.798 Y180.979 E0.08835
G1 X104.522 Y181.165 E0.06433
G1 X71.672 Y181.201 E1.63889
G1 X70.058 Y180.846 E0.08245
G1 X68.693 Y180.102 E0.07756
G1 X67.895 Y179.477 E0.05057
G1 X67.03 Y178.4 E0.06892
G1 X66.231 Y176.786 E0.08985
G1 X66.045 Y175.523 E0.06369
G1 X66.009 Y24.544 E7.53237
G1 X66.351 Y22.882 E0.08465
G0 F3600 X66.731 Y23.022
G1 F1500 X67.508 Y21.621 E0.07993
G1 X68.029 Y20.967 E0.04172
G1 X69.044 Y20.15 E0.06501
G1 X70.532 Y19.408 E0.08295
G1 X71.745 Y19.231 E0.06116
G1 X104.413 Y19.199 E1.62981
G1 X105.977 Y19.521 E0.07966
G1 X107.378 Y20.298 E0.07993
G1 X108.032 Y20.819 E0.04172
G1 X108.849 Y21.834 E0.06501
G1 X109.591 Y23.322 E0.08295
G1 X109.768 Y24.535 E0.06116
G1 X109.794 Y90.957 E3.31381
G1 X110.393 Y90.714 E0.03225
G1 X111.885 Y90.459 E0.07552
G1 X113.561 Y90.66 E0.08422
G1 X114.991 Y91.247 E0.07712
G1 X116.049 Y92.114 E0.06824
G1 X117.555 Y93.706 E0.10933
G1 X118.377 Y95.061 E0.07907
G1 X119.305 Y98.256 E0.16599
G1 X119.422 Y100.142 E0.09427
G1 X118.425 Y103.694 E0.18406
G1 X117.62 Y105.17 E0.08388
G1 X115.784 Y107.006 E0.12954
G1 X114.446 Y107.861 E0.07922
G1 X113.35 Y108.207 E0.05734
G1 X112.133 Y108.41 E0.06156
G1 X110.41 Y108.183 E0.0867
G1 X109.794 Y107.903 E0.03376
G1 X109.8 Y175.414 E3.36814
G1 X109.478 Y176.978 E0.07966
G1 X108.701 Y178.379 E0.07993
G1 X108.18 Y179.033 E0.04172
G1 X107.165 Y179.85 E0.06501
G1 X105.677 Y180.592 E0.08295
G1 X104.464 Y180.769 E0.06116
G1 X71.717 Y180.801 E1.63376
G1 X70.198 Y180.467 E0.07759
G1 X68.94 Y179.787 E0.07134
G1 X68.179 Y179.191 E0.04822
G1 X67.366 Y178.179 E0.06476
G1 X66.618 Y176.668 E0.08412
G1 X66.441 Y175.465 E0.06066
G1 X66.409 Y24.586 E7.52738
G1 X66.731 Y23.022 E0.07966
G0 F3600 X67.111 Y23.161
G1 F1500 X67.821 Y21.87 E0.07351
G1 X68.313 Y21.253 E0.03937
G1 X69.264 Y20.487 E0.06092
G1 X70.652 Y19.795 E0.07738
G1 X71.803 Y19.627 E0.05803
G1 X104.371 Y19.599 E1.62482
G1 X105.838 Y19.901 E0.07472
G1 X107.129 Y20.611 E0.07351
G1 X107.746 Y21.103 E0.03937
G1 X108.512 Y22.054 E0.06092
G1 X109.204 Y23.442 E0.07738
G1 X109.372 Y24.593 E0.05803
G1 X109.394 Y91.551 E3.34055
G1 X110.505 Y91.101 E0.0598
G1 X111.895 Y90.863 E0.07036
G1 X113.459 Y91.05 E0.07858
G1 X114.783 Y91.594 E0.07141
G1 X115.758 Y92.389 E0.06276
G1 X117.237 Y93.952 E0.10736
G1 X118.007 Y95.222 E0.0741
G1 X118.909 Y98.326 E0.16127
G1 X119.019 Y100.099 E0.08863
G1 X118.053 Y103.541 E0.17836
G1 X117.297 Y104.927 E0.07877
G1 X115.53 Y106.694 E0.12467
G1 X114.276 Y107.495 E0.07424
G1 X113.284 Y107.812 E0.05196
G1 X112.126 Y108.005 E0.05857
G1 X110.52 Y107.794 E0.08081
G1 X109.394 Y107.282 E0.06171
G1 X109.4 Y175.372 E3.39702
G1 X109.098 Y176.839 E0.07472
G1 X108.388 Y178.13 E0.07351
G1 X107.896 Y178.747 E0.03937
G1 X106.945 Y179.513 E0.06092
G1 X105.557 Y180.205 E0.07738
G1 X104.406 Y180.373 E0.05803
G1 X71.762 Y180.401 E1.62862
G1 X70.339 Y180.088 E0.07269
G1 X69.187 Y179.472 E0.06517
G1 X68.463 Y178.905 E0.04588
G1 X67.702 Y177.958 E0.06061
G1 X67.005 Y176.55 E0.07838
G1 X66.837 Y175.407 E0.05764
G1 X66.809 Y24.628 E7.52239
G1 X67.111 Y23.161 E0.07472
G0 F3600 X67.491 Y23.299
G1 F1500 X68.134 Y22.119 E0.06704
G1 X68.599 Y21.536 E0.0372
G1 X69.48 Y20.826 E0.05645
G1 X70.772 Y20.182 E0.07202
G1 X71.861 Y20.023 E0.05491
G1 X104.329 Y19.999 E1.61984
G1 X105.7 Y20.281 E0.06983
G1 X106.88 Y20.924 E0.06704
G1 X107.463 Y21.389 E0.0372
G1 X108.173 Y22.27 E0.05645
G1 X108.817 Y23.562 E0.07202
G1 X108.976 Y24.651 E0.05491
G1 X108.994 Y92.322 E3.37612
G1 X109.662 Y91.874 E0.04013
G1 X110.617 Y91.488 E0.05139
G1 X111.905 Y91.267 E0.0652
G1 X113.357 Y91.441 E0.07296
G1 X114.575 Y91.941 E0.06569
G1 X115.467 Y92.664 E0.05728
G1 X116.917 Y94.197 E0.10527
G1 X117.638 Y95.385 E0.06933
G1 X118.513 Y98.396 E0.15643
G1 X118.616 Y100.056 E0.08298
G1 X117.681 Y103.388 E0.17266
G1 X116.974 Y104.684 E0.07365
G1 X115.276 Y106.382 E0.1198
G1 X114.107 Y107.129 E0.06921
G1 X113.218 Y107.417 E0.04662
G1 X112.119 Y107.6 E0.05558
G1 X110.63 Y107.405 E0.07492
G1 X109.161 Y106.737 E0.08051
G1 X108.994 Y106.605 E0.01062
G1 X109 Y175.33 E3.4287
G1 X108.718 Y176.701 E0.06983
G1 X108.075 Y177.881 E0.06704
G1 X107.61 Y178.464 E0.0372
G1 X106.729 Y179.174 E0.05645
G1 X105.437 Y179.818 E0.07202
G1 X104.348 Y179.977 E0.05491
G1 X71.807 Y180.001 E1.62348
G1 X70.479 Y179.709 E0.06784
G1 X69.376 Y179.119 E0.06241
G1 X68.748 Y178.62 E0.04002
G1 X68.038 Y177.737 E0.05653
G1 X67.392 Y176.432 E0.07265
G1 X67.233 Y175.349 E0.05461
G1 X67.209 Y24.67 E7.51741
G1 X67.491 Y23.299 E0.06983
G0 F3600 X67.871 Y23.437
G1 F1500 X68.447 Y22.368 E0.06058
G1 X68.883 Y21.821 E0.0349
G1 X69.7 Y21.163 E0.05234
G1 X70.892 Y20.569 E0.06644
G1 X71.919 Y20.419 E0.05178
G1 X104.287 Y20.399 E1.61485
G1 X105.562 Y20.661 E0.06494
G1 X106.631 Y21.237 E0.06058
G1 X107.178 Y21.673 E0.0349
G1 X107.836 Y22.49 E0.05234
G1 X108.43 Y23.682 E0.06644
G1 X108.58 Y24.709 E0.05178
G1 X108.594 Y93.188 E3.41643
G1 X108.804 Y92.931 E0.01656
G1 X109.849 Y92.23 E0.06278
G1 X110.729 Y91.874 E0.04736
G1 X111.915 Y91.671 E0.06003
G1 X113.255 Y91.831 E0.06733
G1 X114.37 Y92.289 E0.06014
G1 X115.176 Y92.939 E0.05166
G1 X116.597 Y94.442 E0.10319
G1 X117.269 Y95.548 E0.06457
G1 X118.117 Y98.466 E0.1516
G1 X118.213 Y100.013 E0.07733
G1 X117.308 Y103.237 E0.16706
G1 X116.652 Y104.44 E0.06836
G1 X115.022 Y106.07 E0.11501
G1 X113.936 Y106.764 E0.0643
G1 X113.152 Y107.022 E0.04118
G1 X112.112 Y107.195 E0.0526
G1 X110.739 Y107.015 E0.06909
G1 X109.326 Y106.373 E0.07743
G1 X108.594 Y105.628 E0.05211
G1 X108.6 Y175.288 E3.47535
G1 X108.338 Y176.563 E0.06494
G1 X107.762 Y177.632 E0.06058
G1 X107.326 Y178.179 E0.0349
G1 X106.509 Y178.837 E0.05234
G1 X105.317 Y179.431 E0.06644
G1 X104.29 Y179.581 E0.05178
G1 X71.852 Y179.601 E1.61834
G1 X70.619 Y179.33 E0.06298
G1 X69.565 Y178.766 E0.05964
G1 X69.034 Y178.337 E0.03406
G1 X68.374 Y177.516 E0.05255
G1 X67.779 Y176.314 E0.06691
G1 X67.629 Y175.291 E0.05158
G1 X67.609 Y24.712 E7.51242
G1 X67.871 Y23.437 E0.06494
G0 F3600 X68.251 Y23.575
G1 F1500 X68.799 Y22.558 E0.05764
G1 X69.165 Y22.108 E0.02894
G1 X69.92 Y21.5 E0.04836
G1 X71.012 Y20.956 E0.06087
G1 X71.977 Y20.815 E0.04866
G1 X104.246 Y20.799 E1.60991
G1 X105.424 Y21.041 E0.06
G1 X106.441 Y21.589 E0.05764
G1 X106.891 Y21.955 E0.02894
G1 X107.499 Y22.71 E0.04836
G1 X108.043 Y23.802 E0.06087
G1 X108.184 Y24.767 E0.04866
G1 X108.194 Y94.479 E3.47795
G1 X109.027 Y93.263 E0.07354
G1 X110.037 Y92.586 E0.06066
