;FLAVOR:RepRap
;TIME:4723
;Filament used: 5.2898m
;Layer height: 0.2
;MINX:55.387
;MINY:47.892
;MINZ:0.3
;MAXX:144.478
;MAXY:151.755
;MAXZ:9.9
;TARGET_MACHINE.NAME:Unknown
;Generated with Cura_SteamEngine 5.10.2
T0
M190 S50
M104 S210
M109 S210
G28 ;Home
G1 Z15.0 F6000 ;Move the platform down 15mm
;Prime the extruder
G92 E0
G1 F200 E3
G92 E0
M82 ;absolute extrusion mode
M83 ;relative extrusion mode
G1 F1500 E-6.5
;LAYER_COUNT:49
;LAYER:0
M107
G0 F3600 X57.755 Y59.575 Z0.3
;TYPE:SKIRT
G1 F1500 E6.5
G1 F2100 X59.897 Y57.785 E0.13927
G1 X62.433 Y56.875 E0.13442
G1 X63.741 Y56.732 E0.06565
G1 X64.854 Y56.723 E0.05553
G1 X64.876 Y55.634 E0.05434
G1 X65.245 Y53.897 E0.08859
G1 X66.214 Y51.926 E0.10957
G1 X67.941 Y50.167 E0.12298
G1 X69.81 Y48.99 E0.11019
G1 X73.193 Y48.052 E0.17515
G1 X75.602 Y47.904 E0.12041
G1 X79.131 Y48.902 E0.18297
G1 X82.209 Y48.04 E0.15947
G1 X84.622 Y47.892 E0.12061
G1 X88.183 Y48.899 E0.18463
G1 X89.894 Y49.801 E0.0965
G1 X91.473 Y51.231 E0.10628
G1 X92.818 Y53.159 E0.11728
G1 X93.489 Y55.693 E0.13078
G1 X93.441 Y56.704 E0.0505
G1 X99.274 Y56.7 E0.29101
G1 X100.049 Y56.949 E0.04061
G1 X101.687 Y56.731 E0.08244
G1 X136.561 Y56.817 E1.73988
G1 X138.437 Y57.153 E0.09508
G1 X141.276 Y58.82 E0.16425
G1 X143.318 Y61.279 E0.15946
G1 X144.29 Y63.849 E0.13708
G1 X144.478 Y65.817 E0.09863
G1 X144.399 Y135.146 E3.45884
G1 X144.179 Y136.529 E0.06987
G1 X143.349 Y138.589 E0.1108
G1 X141.925 Y140.483 E0.11822
G1 X140.165 Y141.896 E0.1126
G1 X137.965 Y142.968 E0.1221
G1 X135.175 Y143.3 E0.14018
G1 X100.881 Y143.189 E1.71094
G1 X100.087 Y143.048 E0.04023
G1 X99.733 Y143.136 E0.0182
G1 X98.4 Y143.278 E0.06688
G1 X87.461 Y143.294 E0.54575
G1 X87.326 Y144.816 E0.07623
G1 X87.029 Y146.158 E0.06857
G1 X86.13 Y147.911 E0.09829
G1 X84.691 Y149.536 E0.10829
G1 X82.801 Y150.724 E0.11137
G1 X79.611 Y151.625 E0.16538
G1 X77.121 Y151.755 E0.1244
G1 X73.864 Y150.796 E0.16939
G1 X71.845 Y149.684 E0.115
G1 X71.614 Y149.493 E0.01495
G1 X70.325 Y147.919 E0.1015
G1 X69.554 Y146.672 E0.07314
G1 X68.909 Y144.532 E0.11151
G1 X68.947 Y143.297 E0.06164
G1 X63.478 Y143.296 E0.27285
G1 X61.328 Y142.804 E0.11004
G1 X59.04 Y141.58 E0.12946
G1 X58.489 Y141.169 E0.03429
G1 X56.842 Y139.251 E0.12613
G1 X56.067 Y137.649 E0.08879
G1 X55.387 Y135.592 E0.10809
G1 X55.467 Y64.601 E3.54176
G1 X55.752 Y62.877 E0.08718
G1 X56.972 Y60.624 E0.12782
G1 X57.755 Y59.575 E0.06531
G0 F3600 X58.047 Y59.853
G1 F2100 X60.099 Y58.138 E0.13342
G1 X62.524 Y57.268 E0.12853
G1 X63.785 Y57.13 E0.06329
G1 X65.246 Y57.121 E0.07289
G1 X65.275 Y55.678 E0.07201
G1 X65.625 Y54.031 E0.084
G1 X66.546 Y52.158 E0.10413
G1 X68.193 Y50.48 E0.1173
G1 X69.973 Y49.359 E0.10495
G1 X73.259 Y48.448 E0.17012
G1 X75.557 Y48.307 E0.11486
G1 X78.898 Y49.252 E0.17322
G1 X79.109 Y49.346 E0.01152
G1 X79.283 Y49.269 E0.00949
G1 X82.275 Y48.436 E0.15495
G1 X84.577 Y48.295 E0.11506
G1 X88.035 Y49.273 E0.17929
G1 X89.665 Y50.132 E0.09192
G1 X91.169 Y51.494 E0.10123
G1 X92.449 Y53.329 E0.11162
G1 X93.086 Y55.735 E0.12417
G1 X93.021 Y57.104 E0.06838
G1 X99.211 Y57.1 E0.30882
G1 X100.012 Y57.357 E0.04197
G1 X101.686 Y57.131 E0.08427
G1 X136.491 Y57.211 E1.73643
G1 X138.296 Y57.534 E0.09148
G1 X141.014 Y59.13 E0.15725
G1 X142.967 Y61.483 E0.15256
G1 X143.897 Y63.941 E0.13111
G1 X144.078 Y65.817 E0.09403
G1 X144.004 Y135.083 E3.4557
G1 X143.791 Y136.422 E0.06764
G1 X142.998 Y138.39 E0.10586
G1 X141.635 Y140.203 E0.11316
G1 X139.951 Y141.555 E0.10774
G1 X137.849 Y142.579 E0.11665
G1 X135.176 Y142.9 E0.13431
G1 X100.951 Y142.795 E1.7075
G1 X100.071 Y142.639 E0.04459
G1 X99.691 Y142.738 E0.01959
G1 X98.358 Y142.88 E0.06688
G1 X87.056 Y142.895 E0.56386
G1 X87.077 Y143.092 E0.00988
G1 X86.935 Y144.73 E0.08203
G1 X86.649 Y146.023 E0.06607
G1 X85.797 Y147.685 E0.09318
G1 X84.432 Y149.226 E0.1027
G1 X82.636 Y150.355 E0.10584
G1 X79.543 Y151.228 E0.16034
G1 X77.171 Y151.352 E0.1185
G1 X74.016 Y150.424 E0.16407
G1 X72.038 Y149.334 E0.11267
G1 X71.923 Y149.239 E0.00744
G1 X70.665 Y147.709 E0.09882
G1 X69.922 Y146.507 E0.0705
G1 X69.311 Y144.48 E0.10562
G1 X69.36 Y142.897 E0.07901
G1 X63.523 Y142.896 E0.29121
G1 X61.469 Y142.426 E0.10512
G1 X59.279 Y141.259 E0.1238
G1 X58.763 Y140.874 E0.03212
G1 X57.18 Y139.031 E0.12121
G1 X56.447 Y137.523 E0.08365
G1 X55.787 Y135.527 E0.10488
G1 X55.862 Y64.666 E3.53527
G1 X56.136 Y63.008 E0.08384
G1 X57.293 Y60.863 E0.12159
G1 X58.047 Y59.853 E0.06288
G0 F3600 X58.339 Y60.131
G1 F2100 X60.301 Y58.491 E0.12758
G1 X62.615 Y57.661 E0.12265
G1 X63.829 Y57.528 E0.06093
G1 X65.672 Y57.519 E0.09195
G1 X65.642 Y57.354 E0.00837
G1 X65.674 Y55.722 E0.08144
G1 X66.005 Y54.165 E0.07941
G1 X66.877 Y52.392 E0.09857
G1 X68.448 Y50.791 E0.11191
G1 X70.136 Y49.728 E0.09952
G1 X73.325 Y48.844 E0.1651
G1 X75.512 Y48.71 E0.10931
G1 X78.789 Y49.637 E0.16991
G1 X79.111 Y49.791 E0.01781
G1 X79.39 Y49.654 E0.01551
G1 X82.341 Y48.832 E0.15283
G1 X84.532 Y48.698 E0.10951
G1 X87.887 Y49.647 E0.17395
G1 X89.434 Y50.462 E0.08724
G1 X90.867 Y51.76 E0.09646
G1 X92.08 Y53.499 E0.10578
G1 X92.683 Y55.777 E0.11756
G1 X92.601 Y57.504 E0.08626
G1 X99.148 Y57.5 E0.32663
G1 X99.997 Y57.772 E0.04448
G1 X100.109 Y57.745 E0.00575
G1 X101.739 Y57.528 E0.08204
G1 X136.421 Y57.605 E1.7303
G1 X138.155 Y57.915 E0.08788
G1 X140.75 Y59.439 E0.15014
G1 X142.618 Y61.689 E0.1459
G1 X143.504 Y64.032 E0.12497
G1 X143.678 Y65.817 E0.08948
G1 X143.609 Y135.02 E3.45255
G1 X143.403 Y136.314 E0.06537
G1 X142.646 Y138.192 E0.10102
G1 X141.345 Y139.923 E0.10803
G1 X139.737 Y141.214 E0.10288
G1 X137.733 Y142.19 E0.11121
G1 X135.177 Y142.5 E0.12845
G1 X101.021 Y142.401 E1.70406
G1 X100.051 Y142.229 E0.04915
G1 X99.649 Y142.34 E0.02081
G1 X98.316 Y142.482 E0.06688
G1 X86.583 Y142.496 E0.58536
G1 X86.678 Y143.058 E0.02844
G1 X86.544 Y144.644 E0.07941
G1 X86.269 Y145.888 E0.06356
G1 X85.464 Y147.459 E0.08807
G1 X84.173 Y148.916 E0.09712
G1 X82.471 Y149.986 E0.1003
G1 X79.475 Y150.831 E0.1553
G1 X77.22 Y150.949 E0.11266
G1 X74.168 Y150.052 E0.15871
G1 X72.231 Y148.984 E0.11035
G1 X71.005 Y147.499 E0.09607
G1 X70.291 Y146.343 E0.06779
G1 X69.713 Y144.427 E0.09984
G1 X69.773 Y142.497 E0.09633
G1 X63.568 Y142.496 E0.30957
G1 X61.608 Y142.047 E0.10032
G1 X59.518 Y140.938 E0.11804
G1 X59.037 Y140.579 E0.02994
G1 X57.517 Y138.809 E0.1164
G1 X56.827 Y137.397 E0.07841
G1 X56.187 Y135.462 E0.10168
G1 X56.257 Y64.731 E3.52879
G1 X56.52 Y63.137 E0.0806
G1 X57.614 Y61.102 E0.11527
G1 X58.339 Y60.131 E0.06046
G0 F3600 X58.633 Y60.406
G1 F2100 X60.501 Y58.845 E0.12145
G1 X62.706 Y58.054 E0.11687
G1 X63.873 Y57.926 E0.05857
G1 X66.207 Y57.917 E0.11644
G1 X66.042 Y57.362 E0.02889
G1 X66.073 Y55.766 E0.07964
G1 X66.386 Y54.297 E0.07493
G1 X67.207 Y52.627 E0.09284
G1 X68.703 Y51.102 E0.10658
G1 X70.299 Y50.097 E0.0941
G1 X73.391 Y49.24 E0.16008
G1 X75.467 Y49.113 E0.10377
G1 X78.68 Y50.022 E0.16659
G1 X79.115 Y50.242 E0.02432
G1 X79.497 Y50.039 E0.02158
G1 X82.407 Y49.228 E0.15071
G1 X84.487 Y49.101 E0.10396
G1 X87.739 Y50.021 E0.16861
G1 X89.202 Y50.792 E0.0825
G1 X90.565 Y52.026 E0.09173
G1 X91.711 Y53.669 E0.09994
G1 X92.28 Y55.819 E0.11096
G1 X92.204 Y57.416 E0.07976
G1 X92.079 Y57.904 E0.02513
G1 X99.085 Y57.9 E0.34953
G1 X99.986 Y58.189 E0.04721
G1 X100.162 Y58.142 E0.00909
G1 X101.792 Y57.925 E0.08204
G1 X136.351 Y57.999 E1.72416
G1 X138.014 Y58.296 E0.08428
G1 X140.488 Y59.749 E0.14314
G1 X142.267 Y61.893 E0.13899
G1 X143.111 Y64.124 E0.119
G1 X143.278 Y65.817 E0.08487
G1 X143.214 Y134.957 E3.44941
G1 X143.015 Y136.206 E0.0631
G1 X142.294 Y137.994 E0.09618
G1 X141.055 Y139.643 E0.1029
G1 X139.523 Y140.873 E0.09802
G1 X137.617 Y141.801 E0.10576
G1 X135.178 Y142.1 E0.12259
G1 X101.091 Y142.007 E1.70061
G1 X100.029 Y141.819 E0.05381
G1 X99.607 Y141.942 E0.02193
G1 X98.274 Y142.084 E0.06688
G1 X86.11 Y142.097 E0.60686
G1 X86.275 Y143.072 E0.04933
G1 X86.153 Y144.558 E0.07439
G1 X85.889 Y145.752 E0.06101
G1 X85.129 Y147.234 E0.08309
G1 X83.914 Y148.606 E0.09143
G1 X82.306 Y149.617 E0.09476
G1 X79.407 Y150.434 E0.15027
G1 X77.269 Y150.546 E0.10681
G1 X74.32 Y149.68 E0.15334
G1 X72.491 Y148.671 E0.10421
G1 X71.345 Y147.289 E0.08957
G1 X70.66 Y146.179 E0.06507
G1 X70.115 Y144.374 E0.09407
G1 X70.179 Y142.334 E0.10183
G1 X70.242 Y142.097 E0.01223
G1 X63.613 Y142.096 E0.33072
G1 X61.75 Y141.669 E0.09536
G1 X59.757 Y140.617 E0.11243
G1 X59.311 Y140.284 E0.02777
G1 X57.854 Y138.587 E0.11159
G1 X57.207 Y137.271 E0.07316
G1 X56.587 Y135.397 E0.09848
G1 X56.652 Y64.796 E3.5223
G1 X56.904 Y63.268 E0.07726
G1 X57.935 Y61.341 E0.10903
G1 X58.633 Y60.406 E0.05821
G0 F3600 X58.927 Y60.681
G1 F2100 X60.703 Y59.197 E0.11547
G1 X62.793 Y58.447 E0.11078
G1 X63.917 Y58.324 E0.05641
G1 X66.743 Y58.315 E0.14099
G1 X66.443 Y57.309 E0.05237
G1 X66.472 Y55.81 E0.0748
G1 X66.766 Y54.431 E0.07034
G1 X67.538 Y52.861 E0.08728
G1 X68.958 Y51.413 E0.10118
G1 X70.462 Y50.466 E0.08867
G1 X73.457 Y49.636 E0.15505
G1 X75.422 Y49.516 E0.09822
G1 X78.571 Y50.407 E0.16327
G1 X79.121 Y50.698 E0.03104
G1 X79.604 Y50.424 E0.0277
G1 X82.473 Y49.624 E0.1486
G1 X84.442 Y49.504 E0.09842
G1 X87.589 Y50.394 E0.16316
G1 X88.972 Y51.123 E0.078
G1 X90.263 Y52.292 E0.08689
G1 X91.342 Y53.839 E0.0941
G1 X91.877 Y55.861 E0.10435
G1 X91.804 Y57.397 E0.07672
G1 X91.553 Y58.304 E0.04695
G1 X99.022 Y58.3 E0.37263
G1 X99.979 Y58.607 E0.05014
G1 X100.215 Y58.539 E0.01225
G1 X101.845 Y58.322 E0.08204
G1 X136.281 Y58.393 E1.71802
G1 X137.873 Y58.677 E0.08068
G1 X140.226 Y60.059 E0.13614
G1 X141.916 Y62.096 E0.13205
G1 X142.718 Y64.216 E0.11308
G1 X142.878 Y65.817 E0.08027
G1 X142.819 Y134.894 E3.44627
G1 X142.627 Y136.098 E0.06083
G1 X141.942 Y137.796 E0.09135
G1 X140.765 Y139.363 E0.09777
G1 X139.309 Y140.532 E0.09316
G1 X137.501 Y141.412 E0.10032
G1 X135.179 Y141.7 E0.11673
G1 X101.092 Y141.607 E1.70061
G1 X100.003 Y141.408 E0.05523
G1 X99.565 Y141.544 E0.02288
G1 X98.232 Y141.686 E0.06688
G1 X85.561 Y141.697 E0.63216
G1 X85.709 Y142.118 E0.02226
G1 X85.872 Y143.086 E0.04897
G1 X85.762 Y144.472 E0.06937
G1 X85.509 Y145.617 E0.0585
G1 X84.796 Y147.008 E0.07798
G1 X83.655 Y148.296 E0.08585
G1 X82.14 Y149.248 E0.08927
G1 X79.34 Y150.037 E0.14513
G1 X77.318 Y150.143 E0.10102
G1 X74.472 Y149.308 E0.14797
G1 X72.75 Y148.358 E0.09812
G1 X71.685 Y147.079 E0.08303
G1 X71.029 Y146.015 E0.06236
G1 X70.517 Y144.321 E0.08829
G1 X70.579 Y142.347 E0.09853
G1 X70.806 Y141.697 E0.03435
G1 X63.658 Y141.696 E0.35662
G1 X61.892 Y141.291 E0.09039
G1 X59.944 Y140.263 E0.10989
G1 X59.585 Y139.989 E0.02253
G1 X58.191 Y138.366 E0.10674
G1 X57.587 Y137.145 E0.06796
G1 X56.987 Y135.332 E0.09528
G1 X57.047 Y64.861 E3.51581
G1 X57.288 Y63.397 E0.07402
G1 X58.256 Y61.58 E0.10271
G1 X58.927 Y60.681 E0.05597
G0 F3600 X59.219 Y60.959
G1 F2100 X60.905 Y59.55 E0.10962
G1 X62.884 Y58.84 E0.10489
G1 X63.961 Y58.722 E0.05405
G1 X67.279 Y58.714 E0.16554
G1 X66.844 Y57.256 E0.07591
G1 X66.871 Y55.854 E0.06996
G1 X67.146 Y54.565 E0.06576
G1 X67.869 Y53.095 E0.08173
G1 X69.211 Y51.727 E0.09561
G1 X70.628 Y50.835 E0.08354
G1 X73.523 Y50.032 E0.14989
G1 X75.377 Y49.919 E0.09267
G1 X78.42 Y50.78 E0.15778
G1 X79.127 Y51.154 E0.0399
G1 X79.76 Y50.795 E0.03631
G1 X82.539 Y50.02 E0.14394
G1 X84.397 Y49.907 E0.09287
G1 X87.441 Y50.768 E0.15782
G1 X88.741 Y51.453 E0.07331
G1 X89.961 Y52.558 E0.08212
G1 X90.973 Y54.009 E0.08826
G1 X91.474 Y55.903 E0.09774
G1 X91.406 Y57.337 E0.07162
G1 X91.027 Y58.704 E0.07077
G1 X98.959 Y58.7 E0.39573
G1 X99.977 Y59.027 E0.05334
G1 X100.268 Y58.936 E0.01521
G1 X101.898 Y58.719 E0.08204
G1 X136.211 Y58.787 E1.71189
G1 X137.732 Y59.058 E0.07708
G1 X139.964 Y60.369 E0.12914
G1 X141.565 Y62.299 E0.12511
G1 X142.325 Y64.308 E0.10716
G1 X142.478 Y65.817 E0.07567
G1 X142.424 Y134.831 E3.44312
G1 X142.239 Y135.989 E0.05851
G1 X141.59 Y137.598 E0.08656
G1 X140.475 Y139.083 E0.09265
G1 X139.095 Y140.191 E0.08829
G1 X137.385 Y141.023 E0.09487
G1 X135.18 Y141.3 E0.11087
G1 X101.162 Y141.213 E1.69717
G1 X100.134 Y141.03 E0.05209
G1 X99.999 Y140.988 E0.00705
G1 X99.523 Y141.146 E0.02502
G1 X98.19 Y141.288 E0.06688
G1 X84.987 Y141.297 E0.6587
G1 X85.315 Y142.184 E0.04718
G1 X85.469 Y143.101 E0.04639
G1 X85.371 Y144.386 E0.0643
G1 X85.129 Y145.481 E0.05595
G1 X84.461 Y146.783 E0.07301
G1 X83.396 Y147.986 E0.08016
G1 X81.974 Y148.879 E0.08377
G1 X79.273 Y149.64 E0.14
G1 X77.367 Y149.74 E0.09522
G1 X74.624 Y148.936 E0.14261
G1 X73.011 Y148.045 E0.09193
G1 X72.026 Y146.869 E0.07653
G1 X71.397 Y145.848 E0.05983
G1 X70.919 Y144.268 E0.08235
G1 X70.977 Y142.422 E0.09214
G1 X71.37 Y141.297 E0.05945
G1 X63.703 Y141.296 E0.38251
G1 X62.034 Y140.913 E0.08543
G1 X60.131 Y139.909 E0.10734
G1 X59.861 Y139.696 E0.01716
G1 X58.528 Y138.145 E0.10203
G1 X57.946 Y136.968 E0.06551
G1 X57.387 Y135.268 E0.08928
G1 X57.442 Y64.926 E3.50938
G1 X57.673 Y63.524 E0.07089
G1 X58.577 Y61.819 E0.09628
G1 X59.219 Y60.959 E0.05354
G0 F3600 X59.513 Y61.234
G1 F2100 X61.107 Y59.902 E0.10364
G1 X62.971 Y59.233 E0.0988
G1 X64.004 Y59.12 E0.05184
G1 X67.934 Y59.113 E0.19607
G1 X67.672 Y58.634 E0.02724
G1 X67.245 Y57.203 E0.0745
G1 X67.27 Y55.899 E0.06507
G1 X67.527 Y54.697 E0.06132
G1 X68.2 Y53.328 E0.07611
G1 X69.461 Y52.043 E0.08982
G1 X70.794 Y51.204 E0.07858
G1 X73.589 Y50.428 E0.14472
G1 X75.332 Y50.322 E0.08712
G1 X78.273 Y51.154 E0.15249
G1 X79.134 Y51.61 E0.04861
G1 X79.916 Y51.166 E0.04486
G1 X82.605 Y50.416 E0.13928
G1 X84.352 Y50.31 E0.08732
G1 X87.293 Y51.142 E0.15249
G1 X88.51 Y51.783 E0.06862
G1 X89.659 Y52.824 E0.07735
G1 X90.604 Y54.179 E0.08242
G1 X91.071 Y55.945 E0.09113
G1 X91.008 Y57.277 E0.06653
G1 X90.619 Y58.678 E0.07254
G1 X90.415 Y59.104 E0.02356
G1 X98.896 Y59.1 E0.42312
G1 X99.979 Y59.448 E0.05675
G1 X100.321 Y59.333 E0.018
G1 X101.951 Y59.116 E0.08204
G1 X136.141 Y59.181 E1.70575
G1 X137.591 Y59.439 E0.07348
G1 X139.702 Y60.679 E0.12214
G1 X141.215 Y62.503 E0.11823
G1 X141.932 Y64.399 E0.10113
G1 X142.078 Y65.817 E0.07112
G1 X142.029 Y134.768 E3.43998
G1 X141.851 Y135.88 E0.05618
G1 X141.238 Y137.4 E0.08177
G1 X140.185 Y138.803 E0.08752
G1 X138.881 Y139.85 E0.08343
G1 X137.269 Y140.634 E0.08943
G1 X135.181 Y140.9 E0.10501
G1 X101.232 Y140.819 E1.69373
G1 X100.204 Y140.636 E0.05209
G1 X99.995 Y140.564 E0.01103
G1 X99.481 Y140.748 E0.02724
G1 X98.148 Y140.89 E0.06688
G1 X84.413 Y140.897 E0.68524
G1 X84.926 Y142.285 E0.07383
G1 X85.066 Y143.121 E0.04229
G1 X84.98 Y144.3 E0.05898
G1 X84.749 Y145.344 E0.05335
G1 X84.128 Y146.555 E0.0679
G1 X83.135 Y147.677 E0.07475
G1 X81.808 Y148.51 E0.07817
G1 X79.206 Y149.243 E0.13487
G1 X77.415 Y149.337 E0.08948
G1 X74.777 Y148.564 E0.13714
G1 X73.271 Y147.732 E0.08584
G1 X72.367 Y146.659 E0.07
G1 X71.765 Y145.681 E0.0573
G1 X71.321 Y144.215 E0.07642
G1 X71.375 Y142.497 E0.08575
G1 X71.934 Y140.897 E0.08456
G1 X63.749 Y140.896 E0.40835
G1 X62.173 Y140.534 E0.08067
G1 X60.37 Y139.588 E0.10158
G1 X60.164 Y139.435 E0.0128
G1 X58.865 Y137.924 E0.09941
G1 X58.305 Y136.791 E0.06305
G1 X57.787 Y135.205 E0.08324
G1 X57.837 Y64.991 E3.50299
G1 X58.058 Y63.652 E0.06771
G1 X58.898 Y62.058 E0.08989
G1 X59.513 Y61.234 E0.0513
G0 F3600 X59.804 Y61.513
G1 F2100 X61.311 Y60.253 E0.098
G1 X63.058 Y59.626 E0.0926
G1 X64.047 Y59.518 E0.04963
G1 X68.676 Y59.512 E0.23094
G1 X68.485 Y59.27 E0.01538
G1 X68.055 Y58.52 E0.04313
G1 X67.646 Y57.15 E0.07133
G1 X67.669 Y55.944 E0.06018
G1 X67.908 Y54.829 E0.05689
G1 X68.531 Y53.561 E0.07048
G1 X69.711 Y52.359 E0.08404
G1 X70.96 Y51.573 E0.07362
G1 X73.655 Y50.824 E0.13955
G1 X75.287 Y50.725 E0.08157
G1 X78.122 Y51.527 E0.14699
G1 X79.14 Y52.066 E0.05747
G1 X80.071 Y51.538 E0.0534
G1 X82.672 Y50.812 E0.13472
G1 X84.307 Y50.713 E0.08172
G1 X87.145 Y51.516 E0.14715
G1 X88.278 Y52.113 E0.06389
G1 X89.357 Y53.09 E0.07262
G1 X90.235 Y54.349 E0.07658
G1 X90.668 Y55.987 E0.08453
G1 X90.61 Y57.215 E0.06133
G1 X90.258 Y58.505 E0.06671
G1 X90.007 Y59.029 E0.02899
G1 X89.641 Y59.504 E0.02992
G1 X98.833 Y59.5 E0.45859
G1 X99.987 Y59.871 E0.06048
G1 X100.374 Y59.73 E0.02055
G1 X102.004 Y59.513 E0.08204
G1 X136.071 Y59.575 E1.69961
G1 X137.451 Y59.821 E0.06993
G1 X139.439 Y60.988 E0.11501
G1 X140.865 Y62.707 E0.11143
G1 X141.539 Y64.49 E0.0951
G1 X141.678 Y65.817 E0.06657
